src/img/categories/category-0.svg

<svg width="158" height="124" viewBox="0 0 158 124" fill="none" xmlns="http://www.w3.org/2000/svg">
<rect x="0.414978" y="74.8792" width="148.517" height="56" rx="28" transform="rotate(-30 0.414978 74.8792)" fill="url(#paint0_linear)"/>
<path d="M51.3654 88.6626H58.0182V104.752H51.3654V88.6626Z" fill="#393F5B"/>
<path d="M97.9393 88.6626H104.593V104.752H97.9393V88.6626Z" fill="#393F5B"/>
<path d="M47.4164 23.2478H108.542V95.8397H47.4164V23.2478Z" fill="#4C5275"/>
<path d="M47.4164 23.2478H90.5783V79.6225H47.4164V23.2478Z" fill="#C5F3FF"/>
<path d="M102.803 48.0199H96.3166C95.2143 48.0199 94.3209 47.1265 94.3209 46.0242C94.3209 44.9219 95.2143 44.0286 96.3166 44.0286H102.803C103.906 44.0286 104.799 44.9219 104.799 46.0242C104.799 47.1265 103.906 48.0199 102.803 48.0199Z" fill="#E6E6E6"/>
<path d="M101.566 62.6657H97.5547C95.7686 62.6657 94.3209 61.218 94.3209 59.4325V55.4213C94.3209 53.6352 95.7686 52.1875 97.5547 52.1875H101.566C103.351 52.1875 104.799 53.6352 104.799 55.4213V59.4325C104.799 61.218 103.351 62.6657 101.566 62.6657Z" fill="#E6E6E6"/>
<path d="M51.741 89.3733V86.0888C51.741 84.9058 52.6997 83.947 53.8828 83.947H84.1119C85.295 83.947 86.2537 84.9058 86.2537 86.0888V89.3733C86.2537 90.5563 85.295 91.515 84.1119 91.515H53.8828C52.6997 91.515 51.741 90.5557 51.741 89.3733Z" fill="#E6E6E6"/>
<path d="M56.5327 28.615H54.4961C53.6174 28.615 52.9048 29.327 52.9048 30.2056V36.3387C52.9048 37.2174 53.6174 37.9294 54.4961 37.9294H56.5327C57.4114 37.9294 58.124 37.2174 58.124 36.3387V30.2056C58.124 29.327 57.4114 28.615 56.5327 28.615Z" fill="#FF5543"/>
<path d="M74.5104 28.615H72.4731C71.5945 28.615 70.8824 29.327 70.8824 30.2056V36.3387C70.8824 37.2174 71.5945 37.9294 72.4731 37.9294H74.5104C75.389 37.9294 76.101 37.2174 76.101 36.3387V30.2056C76.101 29.327 75.389 28.615 74.5104 28.615Z" fill="#FF5543"/>
<path d="M65.5215 28.615H63.4842C62.6056 28.615 61.8936 29.327 61.8936 30.2056V36.3387C61.8936 37.2174 62.6062 37.9294 63.4842 37.9294H65.5215C66.4001 37.9294 67.1122 37.2174 67.1122 36.3387V30.2056C67.1122 29.327 66.4001 28.615 65.5215 28.615Z" fill="#FFDB45"/>
<path d="M83.4986 28.615H81.4612C80.5833 28.615 79.8706 29.327 79.8706 30.2056V36.3387C79.8706 37.2174 80.5833 37.9294 81.4612 37.9294H83.4986C84.3772 37.9294 85.0892 37.2174 85.0892 36.3387V30.2056C85.0892 29.327 84.3772 28.615 83.4986 28.615Z" fill="#F59E27"/>
<path d="M56.5327 49.4073H54.4961C53.6174 49.4073 52.9048 50.1194 52.9048 50.998V57.1311C52.9048 58.0097 53.6174 58.7217 54.4961 58.7217H56.5327C57.4114 58.7217 58.124 58.0097 58.124 57.1311V50.998C58.124 50.1194 57.4114 49.4073 56.5327 49.4073Z" fill="#FFDB45"/>
<path d="M74.5104 49.4073H72.4731C71.5945 49.4073 70.8824 50.1194 70.8824 50.998V57.1311C70.8824 58.0097 71.5945 58.7217 72.4731 58.7217H74.5104C75.389 58.7217 76.101 58.0097 76.101 57.1311V50.998C76.101 50.1194 75.389 49.4073 74.5104 49.4073Z" fill="#F59E27"/>
<path d="M65.5216 49.4073H63.4843C62.6056 49.4073 61.8936 50.1194 61.8936 50.998V57.1311C61.8936 58.0097 62.6063 58.7217 63.4843 58.7217H65.5216C66.4002 58.7217 67.1122 58.0097 67.1122 57.1311V50.998C67.1122 50.1194 66.4002 49.4073 65.5216 49.4073Z" fill="#FF5543"/>
<path d="M83.4986 49.4073H81.4612C80.5833 49.4073 79.8706 50.1194 79.8706 50.998V57.1311C79.8706 58.0097 80.5833 58.7217 81.4612 58.7217H83.4986C84.3772 58.7217 85.0892 58.0097 85.0892 57.1311V50.998C85.0892 50.1194 84.3772 49.4073 83.4986 49.4073Z" fill="#FF5543"/>
<path d="M56.5327 67.2985H54.4961C53.6174 67.2985 52.9048 68.0112 52.9048 68.8892V75.0229C52.9048 75.9016 53.6174 76.6136 54.4961 76.6136H56.5327C57.4114 76.6136 58.124 75.9009 58.124 75.0229V68.8892C58.124 68.0112 57.4114 67.2985 56.5327 67.2985Z" fill="#FF5543"/>
<path d="M74.5104 67.2985H72.4731C71.5945 67.2985 70.8824 68.0112 70.8824 68.8892V75.0229C70.8824 75.9016 71.5945 76.6136 72.4731 76.6136H74.5104C75.389 76.6136 76.101 75.9009 76.101 75.0229V68.8892C76.101 68.0112 75.389 67.2985 74.5104 67.2985Z" fill="#FF5543"/>
<path d="M65.5215 67.2986H63.4842C62.6056 67.2986 61.8936 68.0112 61.8936 68.8892V75.023C61.8936 75.9016 62.6062 76.6136 63.4842 76.6136H65.5215C66.4001 76.6136 67.1122 75.901 67.1122 75.023V68.8892C67.1122 68.0112 66.4001 67.2986 65.5215 67.2986Z" fill="#F59E27"/>
<path d="M83.4986 67.2986H81.4612C80.5833 67.2986 79.8706 68.0112 79.8706 68.8892V75.023C79.8706 75.9016 80.5833 76.6136 81.4612 76.6136H83.4986C84.3772 76.6136 85.0892 75.901 85.0892 75.023V68.8892C85.0892 68.0112 84.3772 67.2986 83.4986 67.2986Z" fill="#FFDB45"/>
<path d="M108.542 35.712C109.231 35.712 109.79 35.1532 109.79 34.4643V23.2478C109.79 22.5588 109.231 22 108.542 22H47.4164C46.7274 22 46.1686 22.5588 46.1686 23.2478V95.8397C46.1686 96.5286 46.7274 97.0874 47.4164 97.0874H50.1176V104.752C50.1176 105.441 50.6765 106 51.3654 106H58.0182C58.7078 106 59.266 105.441 59.266 104.752V97.0874H96.6921V104.752C96.6921 105.441 97.2503 106 97.9393 106H104.593C105.282 106 105.841 105.441 105.841 104.752V97.0874H108.542C109.231 97.0874 109.79 96.5286 109.79 95.8397V39.4547C109.79 38.7658 109.231 38.2076 108.542 38.2076C107.853 38.2076 107.294 38.7658 107.294 39.4547V94.5919H91.826V24.4949H107.294V34.4643C107.294 35.1532 107.853 35.712 108.542 35.712ZM56.7711 103.505H52.6125V97.0874H56.7711V103.505ZM103.345 97.0874V103.505H99.187V97.0874H103.345ZM48.6635 94.5919V80.8702H89.3305V94.5919H48.6635ZM89.3305 78.3747H48.6635V24.4949H89.3305V78.3747Z" fill="#44220F"/>
<path d="M52.9047 43.0032H85.0892C85.7787 43.0032 86.3369 42.4444 86.3369 41.7554C86.3369 41.0665 85.7787 40.5083 85.0892 40.5083H52.9047C52.2158 40.5083 51.6576 41.0665 51.6576 41.7554C51.6576 42.4444 52.2158 43.0032 52.9047 43.0032Z" fill="#44220F"/>
<path d="M52.9047 63.4059H85.0892C85.7787 63.4059 86.3369 62.8471 86.3369 62.1582C86.3369 61.4692 85.7787 60.9104 85.0892 60.9104H52.9047C52.2158 60.9104 51.6576 61.4692 51.6576 62.1582C51.6576 62.8471 52.2158 63.4059 52.9047 63.4059Z" fill="#44220F"/>
<path d="M102.803 42.7808H96.3166C94.5279 42.7808 93.0731 44.2355 93.0731 46.0242C93.0731 47.8129 94.5279 49.2676 96.3166 49.2676H102.803C104.592 49.2676 106.047 47.8129 106.047 46.0242C106.047 44.2355 104.592 42.7808 102.803 42.7808ZM102.803 46.7727H96.3166C95.9038 46.7727 95.568 46.4369 95.568 46.0242C95.568 45.6115 95.9038 45.2757 96.3166 45.2757H102.803C103.216 45.2757 103.552 45.6115 103.552 46.0242C103.552 46.4369 103.216 46.7727 102.803 46.7727Z" fill="#44220F"/>
<path d="M101.566 50.9397H97.5547C95.0835 50.9397 93.0731 52.9501 93.0731 55.4213V59.4319C93.0731 61.903 95.0835 63.9135 97.5547 63.9135H101.566C104.036 63.9135 106.047 61.903 106.047 59.4319V55.4213C106.047 52.9501 104.036 50.9397 101.566 50.9397ZM103.552 59.4325C103.552 60.5271 102.661 61.4185 101.566 61.4185H97.5547C96.4595 61.4185 95.5687 60.5271 95.5687 59.4325V55.4213C95.5687 54.326 96.4595 53.4352 97.5547 53.4352H101.566C102.661 53.4352 103.552 54.326 103.552 55.4213V59.4325Z" fill="#44220F"/>
<path d="M97.6291 39.9258V36.2664C97.6291 35.5775 97.0703 35.0193 96.3813 35.0193C95.6924 35.0193 95.1335 35.5775 95.1335 36.2664V39.9258C95.1335 40.6147 95.6924 41.1736 96.3813 41.1736C97.0703 41.1736 97.6291 40.6147 97.6291 39.9258Z" fill="#44220F"/>
<path d="M84.1119 82.7H53.8827C52.0139 82.7 50.4932 84.2201 50.4932 86.0889V89.3733C50.4932 91.2421 52.0139 92.7622 53.8827 92.7622H57.146C57.835 92.7622 58.3938 92.204 58.3938 91.5145C58.3938 90.8255 57.835 90.2673 57.146 90.2673H53.8827C53.3899 90.2673 52.9881 89.8661 52.9881 89.3733V86.0889C52.9881 85.596 53.3893 85.1949 53.8827 85.1949H84.1119C84.6047 85.1949 85.0059 85.596 85.0059 86.0889V89.3733C85.0059 89.8661 84.6047 90.2673 84.1119 90.2673H62.1365C61.4475 90.2673 60.8893 90.8255 60.8893 91.5145C60.8893 92.204 61.4475 92.7622 62.1365 92.7622H84.1119C85.9807 92.7622 87.5014 91.2421 87.5014 89.3733V86.0889C87.5008 84.2201 85.9807 82.7 84.1119 82.7Z" fill="#44220F"/>
<path d="M54.496 39.1772H56.5333C58.0983 39.1772 59.3711 37.9038 59.3711 36.3394V30.2057C59.3711 28.6407 58.0983 27.3679 56.5333 27.3679H54.496C52.9304 27.3679 51.6576 28.6407 51.6576 30.2057V36.3394C51.6576 37.9038 52.9304 39.1772 54.496 39.1772ZM54.1525 30.2057C54.1525 30.0166 54.3063 29.8628 54.496 29.8628H56.5333C56.7224 29.8628 56.8762 30.0166 56.8762 30.2057V36.3394C56.8762 36.5285 56.7224 36.6823 56.5333 36.6823H54.496C54.3063 36.6823 54.1525 36.5285 54.1525 36.3394V30.2057Z" fill="#44220F"/>
<path d="M72.4731 39.1772H74.5104C76.0754 39.1772 77.3488 37.9038 77.3488 36.3394V30.2057C77.3488 28.6407 76.0754 27.3679 74.5104 27.3679H72.4731C70.9081 27.3679 69.6346 28.6407 69.6346 30.2057V36.3394C69.6346 37.9038 70.9081 39.1772 72.4731 39.1772ZM72.1295 30.2057C72.1295 30.0166 72.2834 29.8628 72.4731 29.8628H74.5104C74.6994 29.8628 74.8532 30.0166 74.8532 30.2057V36.3394C74.8532 36.5285 74.6994 36.6823 74.5104 36.6823H72.4731C72.2834 36.6823 72.1295 36.5285 72.1295 36.3394V30.2057Z" fill="#44220F"/>
<path d="M63.4842 39.1772H65.5215C67.0865 39.1772 68.36 37.9038 68.36 36.3394V30.2057C68.36 28.6407 67.0865 27.3679 65.5215 27.3679H63.4842C61.9192 27.3679 60.6458 28.6407 60.6458 30.2057V36.3394C60.6458 37.9038 61.9192 39.1772 63.4842 39.1772ZM63.1414 30.2057C63.1414 30.0166 63.2952 29.8628 63.4842 29.8628H65.5215C65.7112 29.8628 65.8651 30.0166 65.8651 30.2057V36.3394C65.8651 36.5285 65.7112 36.6823 65.5215 36.6823H63.4842C63.2952 36.6823 63.1414 36.5285 63.1414 36.3394V30.2057Z" fill="#44220F"/>
<path d="M81.4612 39.1772H83.4986C85.0642 39.1772 86.337 37.9038 86.337 36.3394V30.2057C86.337 28.6407 85.0642 27.3679 83.4986 27.3679H81.4612C79.8962 27.3679 78.6235 28.6407 78.6235 30.2057V36.3394C78.6235 37.9038 79.8962 39.1772 81.4612 39.1772ZM81.1184 30.2057C81.1184 30.0166 81.2722 29.8628 81.4612 29.8628H83.4986C83.6883 29.8628 83.8421 30.0166 83.8421 30.2057V36.3394C83.8421 36.5285 83.6883 36.6823 83.4986 36.6823H81.4612C81.2722 36.6823 81.1184 36.5285 81.1184 36.3394V30.2057Z" fill="#44220F"/>
<path d="M54.496 59.9696H56.5333C58.0983 59.9696 59.3711 58.6962 59.3711 57.1312V50.9981C59.3711 49.4331 58.0983 48.1597 56.5333 48.1597H54.496C52.9304 48.1597 51.6576 49.4331 51.6576 50.9981V57.1312C51.6576 58.6962 52.9304 59.9696 54.496 59.9696ZM54.1525 50.9981C54.1525 50.809 54.3063 50.6546 54.496 50.6546H56.5333C56.7224 50.6546 56.8762 50.809 56.8762 50.9981V57.1312C56.8762 57.3209 56.7224 57.4747 56.5333 57.4747H54.496C54.3063 57.4747 54.1525 57.3203 54.1525 57.1312V50.9981Z" fill="#44220F"/>
<path d="M72.4731 48.1597C70.9081 48.1597 69.6346 49.4331 69.6346 50.9981V57.1312C69.6346 58.6962 70.9081 59.9696 72.4731 59.9696H74.5104C76.0754 59.9696 77.3488 58.6962 77.3488 57.1312V50.9981C77.3488 49.4331 76.0754 48.1597 74.5104 48.1597H72.4731ZM74.8532 50.9981V57.1312C74.8532 57.3209 74.6994 57.4747 74.5104 57.4747H72.4724C72.2834 57.4747 72.1295 57.3203 72.1295 57.1312V50.9981C72.1295 50.809 72.2834 50.6546 72.4724 50.6546H74.5104C74.6994 50.6546 74.8532 50.809 74.8532 50.9981Z" fill="#44220F"/>
<path d="M63.4842 48.1597C61.9192 48.1597 60.6458 49.4331 60.6458 50.9981V57.1312C60.6458 58.6962 61.9192 59.9696 63.4842 59.9696H65.5215C67.0865 59.9696 68.36 58.6962 68.36 57.1312V50.9981C68.36 49.4331 67.0865 48.1597 65.5215 48.1597H63.4842ZM65.8651 50.9981V57.1312C65.8651 57.3209 65.7112 57.4747 65.5215 57.4747H63.4842C63.2952 57.4747 63.1414 57.3203 63.1414 57.1312V50.9981C63.1414 50.809 63.2952 50.6546 63.4842 50.6546H65.5215C65.7106 50.6546 65.8651 50.809 65.8651 50.9981Z" fill="#44220F"/>
<path d="M83.4986 48.1597H81.4612C79.8962 48.1597 78.6235 49.4331 78.6235 50.9981V57.1312C78.6235 58.6962 79.8962 59.9696 81.4612 59.9696H83.4986C85.0642 59.9696 86.337 58.6962 86.337 57.1312V50.9981C86.337 49.4331 85.0642 48.1597 83.4986 48.1597ZM83.8421 57.1312C83.8421 57.3209 83.6883 57.4747 83.4986 57.4747H81.4612C81.2722 57.4747 81.1184 57.3203 81.1184 57.1312V50.9981C81.1184 50.809 81.2722 50.6546 81.4612 50.6546H83.4986C83.6883 50.6546 83.8421 50.809 83.8421 50.9981V57.1312Z" fill="#44220F"/>
<path d="M54.496 77.8613H56.5333C58.0983 77.8613 59.3711 76.5879 59.3711 75.0229V68.8898C59.3711 67.3248 58.0983 66.0514 56.5333 66.0514H54.496C52.9304 66.0514 51.6576 67.3248 51.6576 68.8898V75.0229C51.6576 76.5879 52.9304 77.8613 54.496 77.8613ZM54.1525 68.8898C54.1525 68.7001 54.3063 68.5463 54.496 68.5463H56.5333C56.7224 68.5463 56.8762 68.7001 56.8762 68.8898V75.0229C56.8762 75.2126 56.7224 75.3664 56.5333 75.3664H54.496C54.3063 75.3664 54.1525 75.212 54.1525 75.0229V68.8898Z" fill="#44220F"/>
<path d="M74.5104 66.0514H72.4724C70.9074 66.0514 69.6346 67.3248 69.6346 68.8898V75.0229C69.6346 76.5879 70.9074 77.8613 72.4724 77.8613H74.5104C76.0754 77.8613 77.3481 76.5879 77.3481 75.0229V68.8898C77.3481 67.3248 76.0754 66.0514 74.5104 66.0514ZM74.8532 75.0229C74.8532 75.212 74.6994 75.3658 74.5104 75.3658H72.4724C72.2834 75.3658 72.1295 75.212 72.1295 75.0229V68.8892C72.1295 68.7001 72.2834 68.5463 72.4724 68.5463H74.5104C74.6994 68.5463 74.8532 68.7001 74.8532 68.8892V75.0229Z" fill="#44220F"/>
<path d="M65.5215 66.0514H63.4842C61.9192 66.0514 60.6458 67.3248 60.6458 68.8898V75.0229C60.6458 76.5879 61.9192 77.8613 63.4842 77.8613H65.5215C67.0865 77.8613 68.36 76.5879 68.36 75.0229V68.8898C68.36 67.3248 67.0865 66.0514 65.5215 66.0514ZM65.8651 75.0229C65.8651 75.212 65.7112 75.3658 65.5215 75.3658H63.4842C63.2952 75.3658 63.1414 75.212 63.1414 75.0229V68.8892C63.1414 68.7001 63.2952 68.5463 63.4842 68.5463H65.5215C65.7112 68.5463 65.8651 68.7001 65.8651 68.8892V75.0229Z" fill="#44220F"/>
<path d="M83.4986 66.0514H81.4612C79.8962 66.0514 78.6235 67.3248 78.6235 68.8898V75.0229C78.6235 76.5879 79.8962 77.8613 81.4612 77.8613H83.4986C85.0642 77.8613 86.337 76.5879 86.337 75.0229V68.8898C86.337 67.3248 85.0642 66.0514 83.4986 66.0514ZM83.8421 75.0229C83.8421 75.212 83.6883 75.3658 83.4986 75.3658H81.4612C81.2722 75.3658 81.1184 75.212 81.1184 75.0229V68.8892C81.1184 68.7001 81.2722 68.5463 81.4612 68.5463H83.4986C83.6883 68.5463 83.8421 68.7001 83.8421 68.8892V75.0229Z" fill="#44220F"/>
<defs>
<linearGradient id="paint0_linear" x1="2.29178" y1="107.012" x2="144.23" y2="101.991" gradientUnits="userSpaceOnUse">
<stop stop-color="#F59E27"/>
<stop offset="0.475947" stop-color="#F59E27" stop-opacity="0.621502"/>
<stop offset="0.855808" stop-color="#F59E27" stop-opacity="0.0780566"/>
<stop offset="1" stop-color="#F59E27" stop-opacity="0"/>
</linearGradient>
</defs>
</svg>

<svg width="158" height="124" fill="none" xmlns="http://www.w3.org/2000/svg"><rect x=".415" y="74.879" width="148.517" height="56" rx="28" transform="rotate(-30 .415 74.88)" fill="url(#paint0_linear)"/><path d="M51.365 88.663h6.653v16.089h-6.653v-16.09zM97.94 88.663h6.653v16.089h-6.654v-16.09z" fill="#393F5B"/><path d="M47.416 23.248h61.126V95.84H47.416V23.248z" fill="#4C5275"/><path d="M47.416 23.248h43.162v56.375H47.416V23.248z" fill="#C5F3FF"/><path d="M102.803 48.02h-6.486a1.996 1.996 0 1 1 0-3.991h6.486a1.995 1.995 0 1 1 0 3.99zM101.566 62.666h-4.011a3.234 3.234 0 0 1-3.234-3.233V55.42a3.234 3.234 0 0 1 3.234-3.233h4.011a3.234 3.234 0 0 1 3.233 3.233v4.011a3.234 3.234 0 0 1-3.233 3.234zM51.741 89.373V86.09c0-1.183.959-2.142 2.142-2.142h30.229c1.183 0 2.142.959 2.142 2.142v3.284a2.142 2.142 0 0 1-2.142 2.142h-30.23a2.142 2.142 0 0 1-2.141-2.142z" fill="#E6E6E6"/><path d="M56.533 28.615h-2.037c-.879 0-1.591.712-1.591 1.59v6.134c0 .878.712 1.59 1.591 1.59h2.037c.878 0 1.591-.712 1.591-1.59v-6.133c0-.879-.713-1.591-1.591-1.591zM74.51 28.615h-2.037a1.59 1.59 0 0 0-1.59 1.59v6.134c0 .878.712 1.59 1.59 1.59h2.037a1.59 1.59 0 0 0 1.591-1.59v-6.133a1.59 1.59 0 0 0-1.59-1.591z" fill="#FF5543"/><path d="M65.522 28.615h-2.038a1.59 1.59 0 0 0-1.59 1.59v6.134c0 .878.712 1.59 1.59 1.59h2.038a1.59 1.59 0 0 0 1.59-1.59v-6.133a1.59 1.59 0 0 0-1.59-1.591z" fill="#FFDB45"/><path d="M83.499 28.615H81.46a1.59 1.59 0 0 0-1.59 1.59v6.134c0 .878.712 1.59 1.59 1.59H83.5a1.59 1.59 0 0 0 1.59-1.59v-6.133a1.59 1.59 0 0 0-1.59-1.591z" fill="#F59E27"/><path d="M56.533 49.407h-2.037c-.879 0-1.591.712-1.591 1.591v6.133c0 .879.712 1.59 1.591 1.59h2.037c.878 0 1.591-.711 1.591-1.59v-6.133c0-.879-.713-1.59-1.591-1.59z" fill="#FFDB45"/><path d="M74.51 49.407h-2.037a1.59 1.59 0 0 0-1.59 1.591v6.133c0 .879.712 1.59 1.59 1.59h2.037a1.59 1.59 0 0 0 1.591-1.59v-6.133a1.59 1.59 0 0 0-1.59-1.59z" fill="#F59E27"/><path d="M65.522 49.407h-2.038a1.59 1.59 0 0 0-1.59 1.591v6.133c0 .879.712 1.59 1.59 1.59h2.038a1.59 1.59 0 0 0 1.59-1.59v-6.133a1.59 1.59 0 0 0-1.59-1.59zM83.499 49.407H81.46c-.878 0-1.59.712-1.59 1.591v6.133c0 .879.712 1.59 1.59 1.59H83.5a1.59 1.59 0 0 0 1.59-1.59v-6.133a1.59 1.59 0 0 0-1.59-1.59zM56.533 67.299h-2.037c-.879 0-1.591.712-1.591 1.59v6.134c0 .879.712 1.59 1.591 1.59h2.037c.878 0 1.591-.712 1.591-1.59v-6.134c0-.878-.713-1.59-1.591-1.59zM74.51 67.299h-2.037c-.879 0-1.59.712-1.59 1.59v6.134c0 .879.712 1.59 1.59 1.59h2.037a1.59 1.59 0 0 0 1.591-1.59v-6.134a1.59 1.59 0 0 0-1.59-1.59z" fill="#FF5543"/><path d="M65.522 67.299h-2.038a1.59 1.59 0 0 0-1.59 1.59v6.134c0 .879.712 1.59 1.59 1.59h2.038a1.59 1.59 0 0 0 1.59-1.59v-6.134a1.59 1.59 0 0 0-1.59-1.59z" fill="#F59E27"/><path d="M83.499 67.299H81.46c-.878 0-1.59.712-1.59 1.59v6.134c0 .879.712 1.59 1.59 1.59H83.5a1.59 1.59 0 0 0 1.59-1.59v-6.134a1.59 1.59 0 0 0-1.59-1.59z" fill="#FFDB45"/><path d="M108.542 35.712c.689 0 1.248-.559 1.248-1.248V23.248c0-.69-.559-1.248-1.248-1.248H47.416c-.689 0-1.247.559-1.247 1.248V95.84c0 .689.558 1.247 1.247 1.247h2.702v7.665c0 .689.558 1.248 1.247 1.248h6.653c.69 0 1.248-.559 1.248-1.248v-7.665h37.426v7.665c0 .689.558 1.248 1.247 1.248h6.654c.689 0 1.248-.559 1.248-1.248v-7.665h2.701c.689 0 1.248-.558 1.248-1.247V39.455a1.248 1.248 0 0 0-2.496 0v55.137H91.826V24.495h15.468v9.97c0 .688.559 1.247 1.248 1.247zm-51.77 67.793h-4.16v-6.418h4.16v6.418zm46.573-6.418v6.418h-4.158v-6.418h4.158zm-54.681-2.495V80.87H89.33v13.722H48.665zM89.33 78.375H48.665v-53.88H89.33v53.88z" fill="#44220F"/><path d="M52.905 43.003h32.184a1.248 1.248 0 1 0 0-2.495H52.905a1.247 1.247 0 1 0 0 2.495zM52.905 63.406h32.184a1.248 1.248 0 1 0 0-2.496H52.905a1.247 1.247 0 0 0 0 2.496zM102.803 42.78h-6.486a3.247 3.247 0 0 0-3.244 3.244 3.247 3.247 0 0 0 3.244 3.244h6.486a3.247 3.247 0 0 0 3.244-3.244 3.247 3.247 0 0 0-3.244-3.243zm0 3.993h-6.486a.75.75 0 0 1 0-1.497h6.486a.75.75 0 0 1 0 1.497zM101.566 50.94h-4.011a4.487 4.487 0 0 0-4.482 4.481v4.01a4.487 4.487 0 0 0 4.482 4.483h4.011c2.47 0 4.481-2.011 4.481-4.482v-4.01a4.487 4.487 0 0 0-4.481-4.482zm1.986 8.492a1.989 1.989 0 0 1-1.986 1.986h-4.011a1.988 1.988 0 0 1-1.986-1.986v-4.01c0-1.096.89-1.987 1.986-1.987h4.011c1.095 0 1.986.891 1.986 1.986v4.011zM97.63 39.926v-3.66a1.247 1.247 0 0 0-2.496 0v3.66a1.248 1.248 0 0 0 2.495 0zM84.112 82.7h-30.23a3.393 3.393 0 0 0-3.389 3.389v3.284a3.393 3.393 0 0 0 3.39 3.39h3.263a1.248 1.248 0 1 0 0-2.496h-3.263a.896.896 0 0 1-.895-.894V86.09c0-.493.401-.894.895-.894h30.229c.493 0 .894.401.894.894v3.284a.895.895 0 0 1-.894.894H62.137a1.247 1.247 0 1 0 0 2.495h21.975c1.869 0 3.39-1.52 3.39-3.389V86.09a3.393 3.393 0 0 0-3.39-3.389zM54.496 39.177h2.037a2.841 2.841 0 0 0 2.838-2.838v-6.133a2.84 2.84 0 0 0-2.838-2.838h-2.037a2.84 2.84 0 0 0-2.838 2.838v6.133a2.841 2.841 0 0 0 2.838 2.838zm-.343-8.971c0-.19.153-.343.343-.343h2.037c.19 0 .343.154.343.343v6.133c0 .19-.154.343-.343.343h-2.037a.343.343 0 0 1-.343-.343v-6.133zM72.473 39.177h2.037a2.842 2.842 0 0 0 2.839-2.838v-6.133a2.841 2.841 0 0 0-2.839-2.838h-2.037a2.841 2.841 0 0 0-2.838 2.838v6.133a2.842 2.842 0 0 0 2.838 2.838zm-.344-8.971c0-.19.154-.343.344-.343h2.037c.19 0 .343.154.343.343v6.133c0 .19-.154.343-.343.343h-2.037a.343.343 0 0 1-.344-.343v-6.133zM63.484 39.177h2.038a2.842 2.842 0 0 0 2.838-2.838v-6.133a2.841 2.841 0 0 0-2.838-2.838h-2.038a2.841 2.841 0 0 0-2.838 2.838v6.133a2.842 2.842 0 0 0 2.838 2.838zm-.343-8.971c0-.19.154-.343.343-.343h2.038c.19 0 .343.154.343.343v6.133c0 .19-.154.343-.343.343h-2.038a.343.343 0 0 1-.343-.343v-6.133zM81.461 39.177H83.5a2.841 2.841 0 0 0 2.838-2.838v-6.133a2.84 2.84 0 0 0-2.838-2.838H81.46a2.84 2.84 0 0 0-2.837 2.838v6.133a2.841 2.841 0 0 0 2.837 2.838zm-.343-8.971c0-.19.154-.343.343-.343H83.5c.19 0 .343.154.343.343v6.133c0 .19-.154.343-.343.343H81.46a.343.343 0 0 1-.343-.343v-6.133zM54.496 59.97h2.037a2.841 2.841 0 0 0 2.838-2.839v-6.133a2.841 2.841 0 0 0-2.838-2.838h-2.037a2.841 2.841 0 0 0-2.838 2.838v6.133a2.841 2.841 0 0 0 2.838 2.839zm-.343-8.972c0-.189.153-.343.343-.343h2.037c.19 0 .343.154.343.343v6.133c0 .19-.154.344-.343.344h-2.037a.344.344 0 0 1-.343-.344v-6.133zM72.473 48.16a2.842 2.842 0 0 0-2.838 2.838v6.133a2.842 2.842 0 0 0 2.838 2.839h2.037a2.842 2.842 0 0 0 2.839-2.839v-6.133a2.842 2.842 0 0 0-2.839-2.838h-2.037zm2.38 2.838v6.133c0 .19-.154.344-.343.344h-2.038a.344.344 0 0 1-.343-.344v-6.133c0-.189.154-.343.343-.343h2.038c.19 0 .343.154.343.343zM63.484 48.16a2.842 2.842 0 0 0-2.838 2.838v6.133a2.842 2.842 0 0 0 2.838 2.839h2.038a2.842 2.842 0 0 0 2.838-2.839v-6.133a2.842 2.842 0 0 0-2.838-2.838h-2.038zm2.381 2.838v6.133c0 .19-.154.344-.343.344h-2.038a.344.344 0 0 1-.343-.344v-6.133c0-.189.154-.343.343-.343h2.038c.189 0 .343.154.343.343zM83.499 48.16H81.46a2.841 2.841 0 0 0-2.837 2.838v6.133a2.841 2.841 0 0 0 2.837 2.839H83.5a2.841 2.841 0 0 0 2.838-2.839v-6.133a2.841 2.841 0 0 0-2.838-2.838zm.343 8.971c0 .19-.154.344-.343.344H81.46a.344.344 0 0 1-.343-.344v-6.133c0-.189.154-.343.343-.343H83.5c.19 0 .343.154.343.343v6.133zM54.496 77.861h2.037a2.841 2.841 0 0 0 2.838-2.838V68.89a2.841 2.841 0 0 0-2.838-2.839h-2.037a2.841 2.841 0 0 0-2.838 2.839v6.133a2.841 2.841 0 0 0 2.838 2.838zm-.343-8.971c0-.19.153-.344.343-.344h2.037c.19 0 .343.154.343.344v6.133c0 .19-.154.343-.343.343h-2.037a.344.344 0 0 1-.343-.343V68.89zM74.51 66.051h-2.038a2.841 2.841 0 0 0-2.837 2.839v6.133a2.841 2.841 0 0 0 2.837 2.838h2.038a2.841 2.841 0 0 0 2.838-2.838V68.89a2.841 2.841 0 0 0-2.838-2.839zm.343 8.972c0 .189-.154.343-.343.343h-2.038a.343.343 0 0 1-.343-.343v-6.134c0-.189.154-.343.343-.343h2.038c.19 0 .343.154.343.343v6.134zM65.522 66.051h-2.038a2.842 2.842 0 0 0-2.838 2.839v6.133a2.842 2.842 0 0 0 2.838 2.838h2.038a2.842 2.842 0 0 0 2.838-2.838V68.89a2.842 2.842 0 0 0-2.838-2.839zm.343 8.972c0 .189-.154.343-.343.343h-2.038a.343.343 0 0 1-.343-.343v-6.134c0-.189.154-.343.343-.343h2.038c.19 0 .343.154.343.343v6.134zM83.499 66.051H81.46a2.841 2.841 0 0 0-2.837 2.839v6.133a2.841 2.841 0 0 0 2.837 2.838H83.5a2.841 2.841 0 0 0 2.838-2.838V68.89a2.841 2.841 0 0 0-2.838-2.839zm.343 8.972c0 .189-.154.343-.343.343H81.46a.343.343 0 0 1-.343-.343v-6.134c0-.189.154-.343.343-.343H83.5c.19 0 .343.154.343.343v6.134z" fill="#44220F"/><defs><linearGradient id="paint0_linear" x1="2.292" y1="107.012" x2="144.23" y2="101.991" gradientUnits="userSpaceOnUse"><stop stop-color="#F59E27"/><stop offset=".476" stop-color="#F59E27" stop-opacity=".622"/><stop offset=".856" stop-color="#F59E27" stop-opacity=".078"/><stop offset="1" stop-color="#F59E27" stop-opacity="0"/></linearGradient></defs></svg>
